X: 10572
M: 6/8
L: 1/8
K: G
V: 1 staves=2
|: d |\
g2g g>ab | d2d d>BG | g2g g>ab | e2e e2d |\
def gfe | dBd g2a | bag ege | dBB B2 :|
V: 2 clef=bass middle=d
z |\
|: z |\
g2g g2g | g2g g2z | b2b b2b | c2c c2z |\


